raw/symbols/sw-eth.svg

<svg width="36" height="36" viewBox="0 0 36 36" fill="none" xmlns="http://www.w3.org/2000/svg">
<path d="M35.9982 17.9991C35.9982 8.05847 27.9397 0 17.9991 0C8.05847 0 0 8.05847 0 17.9991C0 27.9397 8.05847 35.9982 17.9991 35.9982C27.9397 35.9982 35.9982 27.9397 35.9982 17.9991Z" fill="url(#paint0_linear_16124_493482)"/>
<path fill-rule="evenodd" clip-rule="evenodd" d="M10.7971 17.743L17.877 5.99805L24.294 16.6388C23.6269 16.2963 22.639 15.9585 21.4228 15.9585C19.7268 15.9585 18.4265 16.4855 17.1218 17.0143C16.1188 17.4208 15.1132 17.8284 13.9232 17.9984C12.42 18.2131 11.378 18.018 10.7971 17.743ZM24.9361 19.5786L17.8785 29.5769L11.1073 19.9843C11.5486 20.2724 12.1742 20.5183 13.3232 20.5183C14.6731 20.5183 16.0231 19.9933 17.373 19.4683C18.7229 18.9433 20.0729 18.4184 21.4228 18.4184C23.2398 18.4184 24.3979 19.0772 24.9361 19.5786Z" fill="white"/>
<path fill-rule="evenodd" clip-rule="evenodd" d="M17.8801 19.2731L17.8807 29.5769L24.9384 19.5785C24.4002 19.0771 23.242 18.4184 21.4252 18.4184C20.2435 18.4184 19.0618 18.8206 17.8801 19.2731ZM17.8799 16.7129C18.9441 16.3021 20.0556 15.9585 21.4252 15.9585C22.6412 15.9585 23.629 16.2962 24.2961 16.6387L17.8793 5.99805L17.8799 16.7129Z" fill="#7591F2"/>
<defs>
<linearGradient id="paint0_linear_16124_493482" x1="17.9991" y1="0" x2="17.9991" y2="35.9982" gradientUnits="userSpaceOnUse">
<stop stop-color="#2041C9"/>
<stop offset="1" stop-color="#2F65EC"/>
</linearGradient>
</defs>
</svg>

<svg xmlns="http://www.w3.org/2000/svg" width="36" height="36" fill="none"><path fill="url(#a)" d="M35.998 18C35.998 8.057 27.94 0 18 0 8.06 0 0 8.058 0 18c0 9.94 8.058 17.998 18 17.998 9.94 0 17.998-8.058 17.998-17.999Z"/><path fill="#fff" fill-rule="evenodd" d="m10.797 17.743 7.08-11.745 6.417 10.64a6.315 6.315 0 0 0-2.871-.68c-1.696 0-2.996.527-4.301 1.056-1.003.407-2.009.814-3.199.984-1.503.215-2.545.02-3.126-.255Zm14.14 1.836-7.059 9.998-6.77-9.593c.44.288 1.066.534 2.215.534 1.35 0 2.7-.525 4.05-1.05 1.35-.525 2.7-1.05 4.05-1.05 1.817 0 2.975.66 3.513 1.16Z" clip-rule="evenodd"/><path fill="#7591F2" fill-rule="evenodd" d="M17.88 19.273v10.304l7.058-9.999c-.538-.5-1.696-1.16-3.513-1.16-1.181 0-2.363.403-3.545.855Zm0-2.56c1.064-.41 2.176-.755 3.545-.755 1.216 0 2.204.338 2.871.68L17.88 5.999v10.715Z" clip-rule="evenodd"/><defs><linearGradient id="a" x1="17.999" x2="17.999" y1="0" y2="35.998" gradientUnits="userSpaceOnUse"><stop stop-color="#2041C9"/><stop offset="1" stop-color="#2F65EC"/></linearGradient></defs></svg>
